X: 48
T: GREENWOOD
T: (WILL YOU GO WALK THE WOODS SO WILD)
B: FIFTY OLD ENGLISH FOLK DANCE AIRS", Edgar H. Hunt ed., Schott & Co. Ltd. pub., London 1939
Z: 2004-2014 John Chambers <jc:trillian.mit.edu>
M: 6/8
L: 1/8
K: F
[|\
f2f f2c | d2c A3  | B>cd d>ef | g2f e2d |\
f2f f2c | d2c A2f | e2d  c>BA | B3  G3 :|

%%sep 1 1 500
%%sep 1 1 500
